www/assets/icons/settings_remote.svg

<svg width="24" height="24" viewBox="0 0 24 24" xmlns="http://www.w3.org/2000/svg" fill='currentColor'><path d="M15.005 9.5H9.00501C8.45501 9.5 8.00501 9.95 8.00501 10.5V22.5C8.00501 23.05 8.45501 23.5 9.00501 23.5H15.005C15.555 23.5 16.005 23.05 16.005 22.5V10.5C16.005 9.95 15.555 9.5 15.005 9.5ZM12.005 15.5C10.905 15.5 10.005 14.6 10.005 13.5C10.005 12.4 10.905 11.5 12.005 11.5C13.105 11.5 14.005 12.4 14.005 13.5C14.005 14.6 13.105 15.5 12.005 15.5ZM7.05501 6.55L8.46501 7.96C9.37501 7.06 10.625 6.5 12.005 6.5C13.385 6.5 14.635 7.06 15.545 7.96L16.955 6.55C15.685 5.28 13.935 4.5 12.005 4.5C10.075 4.5 8.32501 5.28 7.05501 6.55ZM12.005 0.5C8.96501 0.5 6.21501 1.73 4.22501 3.72L5.63501 5.13C7.26501 3.51 9.51501 2.5 12.005 2.5C14.495 2.5 16.745 3.51 18.365 5.14L19.775 3.73C17.795 1.73 15.045 0.5 12.005 0.5Z"/></svg>

<svg xmlns="http://www.w3.org/2000/svg" width="24" height="24" viewBox="0 0 24 24" fill='currentColor'><path d="M15.005 9.5h-6c-.55 0-1 .45-1 1v12c0 .55.45 1 1 1h6c.55 0 1-.45 1-1v-12c0-.55-.45-1-1-1m-3 6c-1.1 0-2-.9-2-2s.9-2 2-2 2 .9 2 2-.9 2-2 2m-4.95-8.95 1.41 1.41a5.02 5.02 0 0 1 7.08 0l1.41-1.41a6.98 6.98 0 0 0-4.95-2.05c-1.93 0-3.68.78-4.95 2.05M12.005.5c-3.04 0-5.79 1.23-7.78 3.22l1.41 1.41a9 9 0 0 1 6.37-2.63c2.49 0 4.74 1.01 6.36 2.64l1.41-1.41c-1.98-2-4.73-3.23-7.77-3.23"/></svg>
